X: 4865
T: Braes Of Busby, The
R: reel
M: 4/4
K: Edorian
D/|B<E E>F ~G>F E>D|A>G D>E F<A G/F/E/D/|E>F G>A ~B>A G>B^|A/G/F/E/ D>F G<EE3/2:|
|:F/|G>A B>G d>GB>G|F<A d>B A/G/F/E/ D>F|G>A B<G d>G B>G|~A>F D>F G<E E3/2:|
|:G/|~e2B>e (3Bef (3gfe|d2A>d (3Ade (3fed|~e>d B>e ~B>A G>B|A/G/F/E/ ~D>F G<EE3/2:|
F/|G<B E>B (3EGA (3BAG|F>A D>A (3DFG A>F|G<B E>B (3EGA B>G|~A>F D>F G<E E>F|
(3GAB E>B (3EGA (3BAG|F>A D>F (3DFG (3AGF|G>Bd<g d>B G>B|A/G/F/E/ D>F G<EE3/2||

